assets/icon/facebook.svg

<svg fill="none" height="800" viewBox="0 0 48 48" width="800" xmlns="http://www.w3.org/2000/svg"><circle cx="24" cy="24" fill="#3b5998" r="20"/><path clip-rule="evenodd" d="m29.315 16.9578c-.6233-.1247-1.4652-.2178-1.9946-.2178-1.4337 0-1.5268.6233-1.5268 1.6207v1.7754h3.5838l-.3124 3.6776h-3.2714v11.1863h-4.4873v-11.1863h-2.3063v-3.6776h2.3063v-2.2748c0-3.116 1.4645-4.8613 5.1414-4.8613 1.2775 0 2.2125.187 3.4276.4363z" fill="#fff" fill-rule="evenodd"/></svg>

<?xml version="1.0" encoding="utf-8"?><!-- Uploaded to: SVG Repo, www.svgrepo.com, Generator: SVG Repo Mixer Tools -->
<svg width="800px" height="800px" viewBox="0 0 48 48" fill="none" xmlns="http://www.w3.org/2000/svg">
<circle cx="24" cy="24" r="20" fill="#3B5998"/>
<path fill-rule="evenodd" clip-rule="evenodd" d="M29.315 16.9578C28.6917 16.8331 27.8498 16.74 27.3204 16.74C25.8867 16.74 25.7936 17.3633 25.7936 18.3607V20.1361H29.3774L29.065 23.8137H25.7936V35H21.3063V23.8137H19V20.1361H21.3063V17.8613C21.3063 14.7453 22.7708 13 26.4477 13C27.7252 13 28.6602 13.187 29.8753 13.4363L29.315 16.9578Z" fill="white"/>
</svg>
